src/img/icons/prev.svg

<svg width="8" height="12" viewBox="0 0 8 12" fill="none" xmlns="http://www.w3.org/2000/svg">
<path d="M2.84359 6.00254L7.33276 1.51317C7.45637 1.38985 7.52437 1.22498 7.52437 1.04917C7.52437 0.873268 7.45637 0.708488 7.33276 0.584976L6.93939 0.191805C6.81598 0.0680976 6.651 0 6.4752 0C6.29939 0 6.13461 0.0680976 6.0111 0.191805L0.666027 5.53678C0.542027 5.66068 0.474124 5.82624 0.474612 6.00224C0.474124 6.17902 0.541929 6.34439 0.666027 6.46839L6.00612 11.8082C6.12964 11.9319 6.29442 12 6.47032 12C6.64612 12 6.8109 11.9319 6.93451 11.8082L7.32778 11.415C7.58368 11.1591 7.58368 10.7425 7.32778 10.4867L2.84359 6.00254Z" fill="#F2F2F2"/>
</svg>

<svg xmlns="http://www.w3.org/2000/svg" fill="none" viewBox="0 0 8 12"><path fill="#F2F2F2" d="M2.844 6.003l4.489-4.49a.65.65 0 0 0 .191-.464.651.651 0 0 0-.191-.464L6.939.192A.651.651 0 0 0 6.475 0a.651.651 0 0 0-.464.192L.666 5.537a.651.651 0 0 0-.191.465c0 .177.067.342.191.466l5.34 5.34A.651.651 0 0 0 6.47 12c.176 0 .34-.068.465-.192l.393-.393a.657.657 0 0 0 0-.928L2.844 6.003z"/></svg>
